X:1
T:River Flows In You
T:River Flows In You Remix 
T:YIRUMA
C:Yiruma
%%score { ( 1 3 5 6 ) | ( 2 4 7 ) }
L:1/8
Q:1/4=65
M:4/4
K:A
V:1 treble nm="Piano" snm="Pno."
V:3 treble 
V:5 treble 
V:6 treble 
V:2 bass 
V:4 bass 
V:7 bass 
V:1
!mp! agag aead- |!pp! d6-!mp! dA/c/ | agag aead- |!pp! d6-!mp! dA/c/ | %4
 ag/a/- a/A/g/a/- a/A/e/a/- a/A/d/A/ |{/B} cd[Ae]c [GB]3 A/G/ | A2- A/E/A/B/ c3 c/d/ | e3 d/c/ B4 | %8
({Ac)} ag/a/- a/A/g/a/- a/A/e/a/- a/A/d/A/ |{/B} cdec' be{bc'} ba/g/ | [ea]3 A/B/ cE Ac/d/ | %11
 eE cd/c/ B2 a/b/a/g/ | a/A/e/A/ a/b/a/g/ a/A/e/A/ a/b/a/g/ | a/b/c'/d'/ e'/c'/b/a/ gB a/b/a/g/ | %14
 a/A/e/A/ a/b/a/g/ a/A/e/A/ a/b/a/g/ | a/b/c'/d'/ e'/c'/b/a/ ge a/b/a/g/ | %16
 a/A/e/A/ a/b/a/g/ a/A/e/A/ a/b/a/g/ | a/b/c'/d'/ e'/c'/b/a/ ge a/b/a/g/ | %18
 a/A/e/A/ a/a/4b/4a/g/ a/A/e/A/ a/b/a/g/ || %19
[M:6/4] a/b/c'/d'/ e'/c'/b/a/!>(! g/e/B/A/ G!>)! !fermata!E4 A/c/ | %20
[M:4/4] ag/a/- a/A/g/a/- a/A/g/a/- a/A/d/A/ |{/B} cd[Ae]c [GB]3 [CA]/[B,G]/ | %22
 ((([EA]2 [EA]/)))E/A/B/ c/E/A/B/ c/E/c/d/ | e/E/c/d/ e/E/d/c/ B/E/d/c/ BG | %24
{/c} ag/a/- a/A/g/a/- a/A/e/a/- a/A/d/A/ |{/B} cdec' be{ec'} ba/g/ | %26
 [ea]3 [FA]/[EB]/ [Dc]/[CE]/[FA]/[GB]/ [Ac]/[CE]/[Ac]/[Ad]/ | %27
 [ce]/[CE]/[Ac]/[Bd]/ [ce]/[CE]/[Ed]/[Fc]/ [GB]/[CE]/[EG]/[FB]/ a/b/a/g/ | %28
!mp! a/A/e/A/ a/a/4b/4a/g/ a/A/e/A/ a/a/4b/4a/g/ | %29
!<(! a/b/c'/d'/ e'/c'/{bc'}b/a/ g/A/e/A/ a/a/4b/4a/!f!g/!<)! | %30
!p! a/A/e/A/ a/b/a/g/ a/A/e/A/ a/b/a/g/ | a/b/c'/d'/ e'/c'/b/a/!f!!>(! ge a/b/a/g/!>)! | %32
!mp! a/A/e/A/ a/b/a/g/ a/A/e/A/ a/a/4b/4a/g/ | a/b/c'/d'/ e'/c'/b/a/ gB a/a/4b/4a/g/ | %34
 a/A/e/A/ a/a/4b/4a/g/ a/A/e/A/ a/a/4b/4a/g/ | a/b/c'/d'/"_rit." e'/c'/b/a/ gBGE | %36
[Q:1/4=60]{Ac} agag [Aca]ead | [Ac]d[Ae]c B3 A/G/ | !arpeggio![CEA]2 EA/B/ cE Ac/d/ | %39
 eE cd/c/ B7/2 A/4c/4 | agag !arpeggio![Aea]ead |{/B} cdec' [eb]3 A/A/ | %42
[M:6/4][Q:1/4=100]"^\n" a''/8e''/8c''/4a'/4e'/4c'/4a/4e/4c/4A/E/C/A,/F,E, !fermata!A,6 |] %43
V:2
 A,C F2 D,A, E2- | E8 | F,C F2 D,A, E2- | E8 | F,C F2 D,A,ED, | A,,E, C2 E,B, E2 | F,C F2 D,A, E2 | %7
 A,,E, C2 E,B, G2 | F,C F2 D,A,ED, | A,,E,CA,, E,B, E2 | F,C F2 D,B, E2 | A,,E, C2 E,B, E2 | %12
 F,CFF, D,A,ED, | A,,/4A,,/4A,,/E,!<(! CA,, E,B,EE,!<)! |!f! F,/4F,/4F,/C EF, D,/4D,/4D,/B, ED, | %15
 A,,E,CA,, E,B,EE, |!f! F,/4F,/4F,/C EF, D,/4D,/4D,/B, ED, | A,,E,CA,,!>(! E,B,EE,!>)! | %18
 F,,C,F,F,, D,A,ED, ||[M:6/4] A,,E,CA,,E,,B,, !fermata!G,6 |[M:4/4]!<(! F,C F2 D,A,ED,!<)! | %21
!mf! A,,E,CA,, E,B, E2 | F, C3 D,A, D2 | A,,E,CA,, E,B, E2 | F,CFF, D,A,ED, | %25
 A,,E,CA,, !trill(!TE,B,E!trill)!E, | F,C F2 D,A,DD, | A,,E,CA,, E,,B,,G,E,, | F,,C,FF, D,A,ED, | %29
 A,,E,CA,, E,,B,,G,E,, |!f! F,/4F,/4F,/C EF, D,/4D,/4D,/B, ED, | A,,E,CA,, E,B,EE, | %32
 F,,C,FF, D,A,ED, | A,,E,CA,, E,,B,,G,E,, | F,,C,FF, D,A,ED, | A,,E,CA,, E,,B,, G,2 | %36
 [F,C]4 E,CFE, | E,B, A,2 [EG]4 | F,, C,3 D,A, E2 | A,,E, C2 E,B, E2 | F,C F2 D,A,ED, | %41
 A,,/4A,,/4A,,/E,C/16C/16C/8C/4C/C E,/4E,/4E,/B, G2 |[M:6/4] z4 z2{/B,} [C,E,A,C]6 |] %43
V:3
 x8 | (!~(!^^f''''2 !~)!e''2 z2 z2) | a2 z2 z4 | !~(!^^f''''2 !~)!e''2 z4 | x8 | x8 | x8 | x8 | %8
 x8 | x8 | x8 | x8 | x8 | x8 | x8 |{/b} c' z z z z3 z/ z/ | x8 |{/b} c' z z z z3 z/ z/ | x8 || %19
[M:6/4] x12 |[M:4/4] A3 G/E/ D3 D/E/ | C3 C/D/ B,3 z | x8 | x8 | FDFD DB,EB, | CB,B,C B,2 E2 | x8 | %27
 x8 | F3/2FFFD3/2DD | C3/2CCCB,3/2B,B, | x8 |{/b} c' z z z z3 z/ z/ | x8 | x8 | x8 | x8 | %36
 [EA]GFE DCCD | eDEC B,4 | F,2 C2 E2 z2 | G,4 G,2 E,2 | A>A A<A A/G/A/B/ c/d/e/c/ | %41
 A/ z/ B/ z/ c/ z/ a/ z/ z4 |[M:6/4] x12 |] %43
V:4
 x8 | x8 | x8 | x8 | x8 | x8 | x8 | x8 | x8 | x8 | x8 | A,,E,,A,,A,, E,,B,,E, z | %12
 F,,/C,/F,/C,/ F,,/C,/F,/C,/ D,,/A,,/D,/A,,/ D,,/A,,/D,/A,,/ | %13
 A,,,/E,,/A,,/E,,/ A,,,/E,,/A,,/E,,/ E,,/B,,/E,/B,,/ E,,/B,,/E,/B,,/ | %14
 F,,/C,/F,/C,/ F,,/C,/F,/C,/ D,,/A,,/D,/A,,/ D,,/A,,/D,/A,,/ | %15
 A,,,/E,,/A,,/E,,/ A,,,/E,,/A,,/E,,/ E,,/B,,/E,/B,,/ E,,/B,,/E,/B,,/ | %16
 F,,/C,/F,/C,/ F,,/C,/F,/C,/ D,,/A,,/D,/A,,/ D,,/A,,/D,/A,,/ | %17
 A,,,/E,,/A,,/E,,/ A,,,/E,,/A,,/E,,/ E,,/B,,/E,/B,,/ E,,/B,,/E,/B,,/ | x8 ||[M:6/4] x12 | %20
[M:4/4] x8 | z7 A,/C/ | AG/A/- A/A,/E/G/- G/ z/ A,/E/ A/A,/D/A,/ | z8 | %24
 F,,/F,,F,,/ D,,/D,,D,,/ D,,/D,,D,,/ E,,/E,,E,,/ | C/C/D/D/ E/E/C/C/ [E,,E,]4 | %26
 F/ z/ G/A/ z/ F,,/A,,/F,/ D,,/A,,/D,/A,,/ D,,/A,,/D,/A,,/ | A,/E,/C,/E/ A,,/E,,/C/E,/ E,2 G,,2 | %28
 A,,4 D,,4 | C,4 G,,4 | F,,/C,/F,/C,/ F,,/C,/F,/C,/ D,,/A,,/D,/A,,/ D,,/A,,/D,/A,,/ | %31
 A,,,/E,,/A,,/E,,/ A,,,/E,,/A,,/E,,/ E,,/B,,/E,/B,,/ E,,/B,,/E,/B,,/ | %32
 F,,,/C,,/F,/C,,/ F,,,/C,,/F,/C,,/ D,,/A,,/E,/A,,/ D,,/A,,/D,/A,,/ | x8 | x8 | x8 | x8 | x8 | %38
 C,2 A,,2 D,,2 z2 | E,4 C,2 E,,2 | z8 | x8 |[M:6/4] x12 |] %43
V:5
 x8 | x8 | x8 | x8 | x8 | x8 | x8 | x8 | x8 | x8 | x8 | x8 | x8 | x8 | %14
 a'g'/a'/- a'/a/g'/a'/- a'/a/e'/a'/- a'/a/d'/a/ | a'/ z/ d' e'c' [gb]3 a/g/ | %16
 a'g'/a'/- a'/a/g'/a'/- a'/a/e'/a'/- a'/a/d'/a/ | a'/ z/ d' e'c' [gb]3 a/g/ | x8 ||[M:6/4] x12 | %20
[M:4/4] x8 | x8 | x8 | x8 | x8 | %25
 a/4 z/4 z/4 z/4 a/4 z/4 g/4 z/4 a/4 z/4 a/4 z/4 e/4 z/8 z/4 z/ z/16 z/16 z/4 z/ z z2 | z8 | x8 | %28
 x8 | x8 | a'g'/a'/- a'/a/g'/a'/- a'/a/e'/a'/- a'/a/d'/a/ | a'/ z/ d' e'c' [gb]3 a/g/ | x8 | x8 | %34
 x8 | x8 | x8 | x8 | a'g'/a'/- a'/a/g'/a'/- a'/a/e'/a'/- a'/a/e'/a/ | E/D/C/B,/- B,/C/D/C/ B,4 | %40
 x8 | c'/d'/c'/b/ a/b/c'/d'/ e'/ z/ z z2 |[M:6/4] x12 |] %43
V:6
 x8 | x8 | x8 | x8 | x8 | x8 | x8 | x8 | x8 | x8 | x8 | x8 | x8 | x8 | x8 | %15
 A/B/A/G/ A/B/c/d/ e/c/B/A/ G/E/B, | x8 | A/B/A/G/ A/B/c/d/ e/c/B/A/ G/E/B, | x8 ||[M:6/4] x12 | %20
[M:4/4] x8 | x8 | x8 | x8 | x8 | x8 | x8 | x8 | x8 | x8 | x8 | A/B/A/G/ A/B/c/d/ e/c/B/A/ G/E/B, | %32
 x8 | x8 | x8 | x8 | x8 | x8 | x8 | x8 | x8 | x8 |[M:6/4] x12 |] %43
V:7
 x8 | x8 | x8 | x8 | x8 | x8 | x8 | x8 | x8 | x8 | x8 | x8 | x8 | x8 | x8 | x8 | x8 | x8 | x8 || %19
[M:6/4] x12 |[M:4/4] x8 | x8 | x8 | x8 | x8 | x8 | x8 | x8 | x8 | x8 | x8 | x8 | x8 | x8 | x8 | %35
 x8 | x8 | x8 | x8 | A,,,/A,,,/G,,,/A,,,/- A,,,/A,,,/-A,,,/G,,,/ A,,,/A,,,/G,,,/A,,,/ z2 | x8 | %41
 x8 |[M:6/4] x12 |] %43

